src/assets/icons/trophy.svg

<svg width="14" height="14" viewBox="0 0 14 14" fill="none" xmlns="http://www.w3.org/2000/svg">
<g id="trophy">
<g clip-path="url(#clip0_295_4720)">
<path id="Vector" fill-rule="evenodd" clip-rule="evenodd" d="M3.64128 1.25717C3.60846 1.28747 3.6 1.31653 3.6 1.33846V5.76923C3.6 6.88899 3.90898 7.84919 4.46669 8.51799C5.01255 9.17258 5.83835 9.6 7 9.6C8.16165 9.6 8.98745 9.17258 9.53331 8.51799C10.091 7.84919 10.4 6.88899 10.4 5.76923V1.33846C10.4 1.31653 10.3915 1.28747 10.3587 1.25717C10.3251 1.22613 10.2705 1.2 10.2 1.2H3.8C3.72951 1.2 3.67492 1.22613 3.64128 1.25717ZM2.4 1.33846C2.4 0.554935 3.07292 0 3.8 0H10.2C10.9271 0 11.6 0.554935 11.6 1.33846V1.6H12.6C13.3732 1.6 14 2.2268 14 3V4.6C14 6.12656 12.7787 7.33697 11.3542 7.56229C11.1664 8.20265 10.8691 8.78981 10.4549 9.28652C9.77303 10.1042 8.80696 10.6364 7.6 10.7681V12.8H9.4C9.73137 12.8 10 13.0686 10 13.4C10 13.7314 9.73137 14 9.4 14H4.6C4.26863 14 4 13.7314 4 13.4C4 13.0686 4.26863 12.8 4.6 12.8H6.4V10.7681C5.19304 10.6364 4.22697 10.1042 3.54508 9.28652C3.13088 8.78981 2.83356 8.20265 2.64585 7.56229C1.22135 7.33697 0 6.12656 0 4.6V3C0 2.2268 0.626801 1.6 1.4 1.6H2.4V1.33846ZM2.4 2.8H1.4C1.28954 2.8 1.2 2.88954 1.2 3V4.6C1.2 5.32778 1.71543 5.99055 2.41741 6.26559C2.40577 6.1016 2.4 5.93598 2.4 5.76923V2.8ZM11.5826 6.26559C12.2846 5.99055 12.8 5.32778 12.8 4.6V3C12.8 2.88954 12.7105 2.8 12.6 2.8H11.6V5.76923C11.6 5.93598 11.5942 6.1016 11.5826 6.26559Z" fill="black"/>
</g>
</g>
<defs>
<clipPath id="clip0_295_4720">
<rect width="14" height="14" fill="white"/>
</clipPath>
</defs>
</svg>

<svg xmlns="http://www.w3.org/2000/svg" fill="none" viewBox="0 0 14 14"><g clip-path="url(#a)"><path fill="#000" fill-rule="evenodd" d="M3.641 1.257c-.033.03-.041.06-.041.081V5.77c0 1.12.309 2.08.867 2.749C5.013 9.173 5.838 9.6 7 9.6s1.987-.427 2.533-1.082c.558-.669.867-1.629.867-2.749V1.34c0-.022-.008-.052-.041-.082A.23.23 0 0 0 10.2 1.2H3.8a.23.23 0 0 0-.159.057M2.4 1.338C2.4.555 3.073 0 3.8 0h6.4c.727 0 1.4.555 1.4 1.338V1.6h1A1.4 1.4 0 0 1 14 3v1.6c0 1.527-1.221 2.737-2.646 2.962a4.8 4.8 0 0 1-.9 1.725c-.681.817-1.647 1.35-2.854 1.481V12.8h1.8a.6.6 0 1 1 0 1.2H4.6a.6.6 0 1 1 0-1.2h1.8v-2.032c-1.207-.132-2.173-.664-2.855-1.481a4.8 4.8 0 0 1-.9-1.725C1.222 7.337 0 6.127 0 4.6V3a1.4 1.4 0 0 1 1.4-1.4h1zm0 1.462h-1a.2.2 0 0 0-.2.2v1.6c0 .728.515 1.39 1.217 1.666a7 7 0 0 1-.017-.497zm9.183 3.466C12.285 5.99 12.8 5.328 12.8 4.6V3a.2.2 0 0 0-.2-.2h-1v2.97q0 .25-.017.496" clip-rule="evenodd"/></g><defs><clipPath id="a"><path fill="#fff" d="M0 0h14v14H0z"/></clipPath></defs></svg>
